X:5046
T:Harald's Jig
M:6/8
R:Jig
L:1/8
C:Aidan Crossey
K:D
|:AFD DEF|AFD DEF|BGE EFG|BGE EFG
AFD DEF|AFD DEF|GAB AFD|GEC D3:||
|:def fgf|fed dcd|cde efe|edc cde|
fdd|Bdd|Add FEF|GAB AFD|GEC D3:||
